X: 1593
T: Rast Aranağme (Müsemmen)
C: ?
O: Turkey
F: http://compmusic.upf.edu/node/140
N: rast--aranagme--musemmen--1--
N: makam= rast
N: form= aranagme
N: usul= musemmen = 8/8
M: 8/8
L: 1/16
K: C _1/4B ^f  
Q: 1/4=144
%%MIDI tuningsystem comma53
B4 ABAG FEDE FGAB  | c4 A2B2 c2d4z2  | \
w:  ARANAĞME  |   | 
d4 c2B4g4a2  | 
w:   | 
f4 d2eg fed4z2  | d4 a2g2 =fed4e2  | \
w:   |   | 
c4 e2de dcB6  | 
w:   | 
A4 B2c2 e2d6  | B4 A2A3GG6  | B4 ABAG FEDE FGAB  | 
w:   |   |  ARANAĞME  | 
c4 A2B2 c2d4z2  | d4 c2B4g4a2  | f4 d2eg fed4z2  | \
w:   |   |   | 
d4 a2g2 =fed4e2  | 
w:   | 
c4 e2de dcB6  | A4 B2c2 e2d6  | B4 A2A3GG6  | |


